assets/logos/sms.svg

<svg width="80" height="80" viewBox="0 0 80 80" fill="none" xmlns="http://www.w3.org/2000/svg">
<path fill-rule="evenodd" clip-rule="evenodd" d="M40 8C33.671 8 27.4841 9.87677 22.2218 13.393C16.9594 16.9092 12.8579 21.9069 10.4359 27.7541C8.01387 33.6014 7.38016 40.0355 8.61489 46.2429C9.84961 52.4503 12.8973 58.1521 17.3726 62.6274C21.8479 67.1027 27.5497 70.1504 33.7571 71.3851C39.9645 72.6199 46.3986 71.9861 52.2459 69.5641C58.0931 67.1421 63.0908 63.0406 66.607 57.7782C70.1232 52.5159 72 46.329 72 40C72 31.5131 68.6286 23.3737 62.6274 17.3726C56.6263 11.3714 48.4869 8 40 8ZM50.8373 55.072C50.8373 55.6378 50.6126 56.1804 50.2125 56.5805C49.8124 56.9806 49.2698 57.2053 48.704 57.2053H29.856C29.2902 57.2053 28.7476 56.9806 28.3475 56.5805C27.9474 56.1804 27.7227 55.6378 27.7227 55.072V31.6053C27.7227 31.0395 27.9474 30.4969 28.3475 30.0968C28.7476 29.6968 29.2902 29.472 29.856 29.472H33.76C34.0118 29.472 34.2533 29.572 34.4313 29.7501C34.6093 29.9281 34.7093 30.1696 34.7093 30.4213C34.7093 30.6731 34.6093 30.9146 34.4313 31.0926C34.2533 31.2706 34.0118 31.3707 33.76 31.3707H29.856C29.8039 31.381 29.758 31.4114 29.728 31.4553C29.6981 31.4992 29.6866 31.5531 29.696 31.6053V49.2373H48.9493V45.632C48.9742 45.3989 49.0843 45.1833 49.2586 45.0266C49.4329 44.8699 49.659 44.7832 49.8933 44.7832C50.1277 44.7832 50.3538 44.8699 50.5281 45.0266C50.7024 45.1833 50.8125 45.3989 50.8373 45.632V55.072ZM53.8453 36.2347C53.1523 37.1496 52.3618 37.9865 51.488 38.7307L51.008 39.168C49.9413 40.1707 48.8747 41.12 48.0107 41.8347C47.8002 42.0132 47.5391 42.1213 47.264 42.144H47.1573C46.8094 42.144 46.4757 42.0058 46.2296 41.7597C45.9836 41.5137 45.8453 41.18 45.8453 40.832V39.4453C43.712 39.296 41.0347 38.528 39.6053 37.0453C38.0537 35.2343 37.209 32.9234 37.2267 30.5387C37.1307 27.2107 38.2933 24.64 40.4267 23.3067C42.1829 22.3828 44.1502 21.9342 46.1333 22.0053C47.3796 22.004 48.6229 22.1254 49.8453 22.368C51.183 22.597 52.418 23.2314 53.3833 24.1853C54.3487 25.1391 54.9977 26.3665 55.2427 27.7013C55.9176 30.6188 55.4156 33.6848 53.8453 36.2347ZM42.816 31.6587H46.7627C46.9957 31.6835 47.2114 31.7936 47.3681 31.9679C47.5248 32.1422 47.6115 32.3683 47.6115 32.6027C47.6115 32.837 47.5248 33.0631 47.3681 33.2374C47.2114 33.4117 46.9957 33.5219 46.7627 33.5467H42.816C42.6836 33.5608 42.5497 33.5468 42.423 33.5058C42.2964 33.4648 42.1798 33.3976 42.0807 33.3086C41.9817 33.2195 41.9026 33.1107 41.8484 32.9891C41.7942 32.8675 41.7662 32.7358 41.7662 32.6027C41.7662 32.4695 41.7942 32.3379 41.8484 32.2162C41.9026 32.0946 41.9817 31.9858 42.0807 31.8967C42.1798 31.8077 42.2964 31.7405 42.423 31.6995C42.5497 31.6585 42.6836 31.6446 42.816 31.6587ZM38.7361 52.5798C38.9023 52.4709 39.0972 52.4139 39.296 52.416C39.5601 52.4188 39.8124 52.5257 39.9981 52.7134C40.1838 52.9012 40.288 53.1546 40.288 53.4187C40.288 53.6174 40.2289 53.8117 40.1182 53.9768C40.0076 54.1419 39.8504 54.2704 39.6665 54.346C39.4827 54.4216 39.2805 54.4408 39.0858 54.4012C38.891 54.3617 38.7123 54.2651 38.5725 54.1238C38.4328 53.9825 38.3381 53.8029 38.3006 53.6077C38.2632 53.4125 38.2845 53.2105 38.3621 53.0275C38.4396 52.8445 38.5698 52.6887 38.7361 52.5798ZM42.7947 28.3413H50.6773C50.8097 28.3272 50.9436 28.3412 51.0703 28.3822C51.1969 28.4232 51.3136 28.4904 51.4126 28.5794C51.5116 28.6684 51.5908 28.7773 51.6449 28.8989C51.6991 29.0205 51.7272 29.1522 51.7272 29.2853C51.7272 29.4185 51.6991 29.5501 51.6449 29.6717C51.5908 29.7934 51.5116 29.9022 51.4126 29.9912C51.3136 30.0803 51.1969 30.1475 51.0703 30.1885C50.9436 30.2295 50.8097 30.2434 50.6773 30.2293H42.7947C42.6623 30.2434 42.5284 30.2295 42.4017 30.1885C42.2751 30.1475 42.1584 30.0803 42.0594 29.9912C41.9604 29.9022 41.8812 29.7934 41.827 29.6717C41.7729 29.5501 41.7448 29.4185 41.7448 29.2853C41.7448 29.1522 41.7729 29.0205 41.827 28.8989C41.8812 28.7773 41.9604 28.6684 42.0594 28.5794C42.1584 28.4904 42.2751 28.4232 42.4017 28.3822C42.5284 28.3412 42.6623 28.3272 42.7947 28.3413Z" fill="#1E6BF1"/>
</svg>

<svg xmlns="http://www.w3.org/2000/svg" width="80" height="80" fill="none" viewBox="0 0 80 80"><path fill="#1e6bf1" fill-rule="evenodd" d="M40 8a32 32 0 1 0 0 63.999A32 32 0 0 0 40 8m10.837 47.072a2.133 2.133 0 0 1-2.133 2.133H29.856a2.133 2.133 0 0 1-2.133-2.133V31.605a2.133 2.133 0 0 1 2.133-2.133h3.904a.95.95 0 1 1 0 1.899h-3.904a.203.203 0 0 0-.16.234v17.632h19.253v-3.605a.95.95 0 0 1 1.888 0zm3.008-18.837a16 16 0 0 1-2.357 2.496l-.48.437a66 66 0 0 1-2.997 2.667c-.21.178-.472.286-.747.309h-.107a1.31 1.31 0 0 1-1.312-1.312v-1.387c-2.133-.149-4.81-.917-6.24-2.4a9.9 9.9 0 0 1-2.378-6.506c-.096-3.328 1.066-5.899 3.2-7.232a11.4 11.4 0 0 1 5.706-1.302 19 19 0 0 1 3.712.363 6.62 6.62 0 0 1 5.398 5.333 11.38 11.38 0 0 1-1.398 8.534m-11.029-4.576h3.947a.95.95 0 0 1 0 1.888h-3.947a.95.95 0 1 1 0-1.888m-4.08 20.92a1.002 1.002 0 1 1 1.098 1.678 1.002 1.002 0 0 1-1.098-1.677m4.059-24.238h7.882a.95.95 0 1 1 0 1.888h-7.882a.95.95 0 1 1 0-1.888" clip-rule="evenodd"/></svg>
